!!!OTL@@FUR: Lipa ma Marica
!!!OTL@IT: Bella mia Maria
!!!OTL@EN: My pretty Mary
**kern
*clefG2
*k[f#c#]
*D:
*M12/8
*MM120
*>[A,A]
*>A
=1
4f#
8f#
4f#
8f#
4.e
4.d
=2
4f#
8f#
4f#
8f#
4.a
4f#
8f#
=3
4f#
8f#
4f#
8f#
4.e
4.d
=4
4f#
8f#
4e
8e
4.d
4.r
=5||
*k[f#]
*G:
4b
8b
4b
8b
4.a
4.g
=6
4b
8b
4b
8b
4.dd
4b
8b
=7
4b
8b
4b
8b
4.a
4.g
=8
4b
8b
4a
8a
4.g
4.r
==:|!
*-
!!!ARE: Friuli
!!!ENC: Kelly Leistikow
!!!END: 2002/03/07
!!!ref: @{OTL@@FUR}/@{OTL@EN}
